X:1
T:Title
%%score { ( 1 2 ) | ( 3 4 ) }
L:1/8
Q:1/4=110
M:4/4
K:G
V:1 treble nm="Grand Piano"
V:2 treble 
V:3 treble 
V:4 treble 
V:1
 G2 G2 z A B2 | e2 B2 d4 | B2 B2 BA G2 | B2 [^CA]2 F2 D2 | z4 G2 z2 | e2 B2 d4 | A2 A2 B^c d2 | %7
w: Adam~Geibel * * *|||||||
 [^CE]2 [CA]2 D4 | [Fe]4 [Fd]4 | [Fc]2 [CDF]2 [FB]2 [CFA]2 | A2 G2 F2 E2 | D2 E2 G2 E2 | %12
w: |||||
 z2 c2 c2 c2 | c2 E2 F2 c2 | z2 d2 d2 d2 | d2 B2 c2 d2 | [Fe]4 [Fd]4 | [Fc]2 [DF]2 [FB]2 [FA]2 | %18
w: ||||||
 [EG]2 [EF]2 [EG]2 [EA]2 | [^DB]6 [DB]2 | [EB]3 [EB] [^Ge]2 [Gd]2 | d2 c2 d2 e2 | %22
w: ||||
 [GB]3 [GB] [Fd]2 [CFB]2 | [B,DG]6 z2 |] %24
w: ||
V:2
 z4 G2 z2 | x8 | x8 | x8 | [G,B,G]2 [B,DG]2 B,A B2 | x8 | x8 | x8 | x8 | x8 | x8 | x8 | F8- | %13
 F2 z2 z4 | B8- | B2 z2 z4 | x8 | x8 | x8 | x8 | x8 | x8 | x8 | x8 |] %24
V:3
 [G,B,D]2 [G,B,D]2 B,C [G,DG]2 | [G,B,G]2 [G,DG]2 [G,B,G]4 | z4 .D2[K:bass] z2 | z4 A,2 z2 | %4
 G,,2 G,2 z[K:treble] C [G,DG]2 | [G,B,G]2 [G,DG]2 [G,B,G]4 | [A,CF]2 [A,DF]2 [A,DF]2 [A,DF]2 | %7
 [A,,A,]2 [A,,G,]2 [D,F,]4 | [D,C]4 [D,C]4 | [D,A,]2 D,2 D,2 D,2 | %10
 [G,B,D]2 [G,B,D]2 [G,_B,^C]2 [G,B,C]2 | [G,B,]2 z2 z4 | z2 [D,D]2 [D,D]2 [D,D]2 | [D,D]2 z2 z4 | %14
 z2 [G,D]2 [G,D]2 [G,D]2 | [G,D]2 B,2 C2 D2 | [D,C]4 [D,C]4 | [D,A,]2 [D,C]2 [^D,B,]2 [E,C]2 | %18
 [E,B,]2 [E,B,]2 [C,C]2 [C,E,]2 | [B,,F,]6 [B,,A,]2 | [E,^G,]3 [E,G,] [E,B,]2 [E,E]2 | %21
 [A,EA]2 [A,EA]2[K:bass] [A,CE]2 [A,CE]2 | [D,D]3 [D,D] [D,C]2 D,2 | G,,6 z2 |] %24
V:4
 z4 G,2 z2 | x8 | [G,DG]2 [G,DG]2 [G,G]-[G,CG][K:bass] [G,B,D]2 | %3
 [E,G,^C]2 [A,,G,]2 [D,=C]2- [D,F,C]2 | z4 G,2[K:treble] z2 | x8 | x8 | x8 | x8 | x8 | x8 | x8 | %12
 x8 | x8 | x8 | x8 | x8 | x8 | x8 | x8 | x8 | x4[K:bass] x4 | x8 | x8 |] %24

